tools/download-figma-icons/icons/outlined-large/contract-amendents.svg

<svg width="64" height="64" viewBox="0 0 64 64" fill="none" xmlns="http://www.w3.org/2000/svg">
<path d="M63.5608 26.4467L59.5564 22.4475C59.2748 22.1666 58.8932 22.0089 58.4952 22.0089C58.0973 22.0089 57.7156 22.1666 57.4341 22.4475L55.9925 23.8972V3.54085C55.9912 3.07605 55.8982 2.61607 55.7189 2.18715C55.5396 1.75824 55.2775 1.3688 54.9475 1.04107C54.6174 0.713335 54.226 0.45373 53.7956 0.277074C53.3651 0.100418 52.904 0.0101706 52.4386 0.0114854H23.4569C23.3507 -0.00382847 23.2428 -0.00382847 23.1366 0.0114854C22.9474 0.049883 22.7678 0.125314 22.608 0.233426C22.4482 0.341537 22.3114 0.480187 22.2055 0.641372L8.31034 18.5282V18.5881C8.11829 18.8423 8.00986 19.1497 8 19.468C8 19.468 8 19.468 8 19.468V60.4606C7.99991 61.3907 8.3664 62.2835 9.02022 62.9458C9.67404 63.6082 10.5626 63.9869 11.4938 64H52.4386C52.904 64.0013 53.3651 63.911 53.7956 63.7344C54.226 63.5577 54.6174 63.2981 54.9475 62.9704C55.2775 62.6427 55.5396 62.2532 55.7189 61.8243C55.8982 61.3954 55.9912 60.9354 55.9925 60.4706V36.295L63.5708 28.5564C63.8476 28.2743 64.0019 27.8945 64 27.4995C63.9981 27.1045 63.8403 26.7262 63.5608 26.4467ZM58.5553 29.4462L56.6132 27.5065L58.4952 25.6269L60.3873 27.5165L58.5553 29.4462ZM55.9925 32.0057L52.9892 35.0752L39.4144 48.9327L38.9439 49.0827L37.0318 47.343L37.1319 47.043L52.9892 31.1459L54.5009 29.6362L55.9925 31.1259L56.423 31.5558L55.9925 32.0057ZM21.9553 5.88043V14.3789L13.446 16.8085L21.9553 5.88043ZM52.9892 60.4706C52.9879 60.5415 52.9726 60.6115 52.9443 60.6765C52.9159 60.7415 52.875 60.8003 52.8238 60.8495C52.7727 60.8987 52.7124 60.9374 52.6463 60.9633C52.5802 60.9892 52.5096 61.0018 52.4386 61.0005H11.4938C11.4228 61.0018 11.3523 60.9892 11.2862 60.9633C11.2201 60.9374 11.1597 60.8987 11.1086 60.8495C11.0575 60.8003 11.0166 60.7415 10.9882 60.6765C10.9598 60.6115 10.9445 60.5415 10.9432 60.4706V20.6378L23.8674 16.9484C24.182 16.8609 24.4591 16.6726 24.6563 16.4125C24.8534 16.1524 24.9596 15.8349 24.9586 15.5087V3.01095H52.4386C52.5096 3.00962 52.5802 3.02228 52.6463 3.04819C52.7124 3.07411 52.7727 3.11277 52.8238 3.16198C52.875 3.21119 52.9159 3.26998 52.9443 3.33499C52.9726 3.39999 52.9879 3.46995 52.9892 3.54085V26.9067L34.7593 45.1734C34.5933 45.3381 34.4696 45.5405 34.3989 45.7633L32.5168 51.3423C32.4846 51.3587 32.4543 51.3789 32.4267 51.4022C31.322 52.3855 29.9018 52.9422 28.4223 52.972C27.5914 52.972 26.7105 51.9721 25.7895 50.9723C24.5181 49.5626 23.0865 47.9729 20.9141 47.9729C17.7006 47.9729 15.4081 51.2623 15.1578 51.6422C15.0489 51.8055 14.9734 51.9887 14.9355 52.1813C14.8977 52.3738 14.8984 52.572 14.9374 52.7643C14.9765 52.9566 15.0532 53.1393 15.1632 53.3019C15.2732 53.4645 15.4142 53.6038 15.5783 53.7118C15.9085 53.9314 16.3119 54.0125 16.7014 53.9377C17.091 53.8628 17.4354 53.6381 17.6606 53.3119C18.1111 52.732 19.5827 51.0023 20.9542 51.0023C21.7851 51.0023 22.666 52.0021 23.5871 53.002C24.8584 54.4117 26.29 56.0014 28.4624 56.0014C30.6356 55.9603 32.7243 55.1528 34.3588 53.7218L40.6858 51.7222C40.9189 51.6508 41.1294 51.5198 41.2964 51.3423L52.9892 39.3544V60.4706Z" fill="black"/>
<path d="M16.4492 27.0073H47.4832C47.8814 27.0073 48.2634 26.8493 48.545 26.568C48.8266 26.2867 48.9848 25.9051 48.9848 25.5073C48.9848 25.1095 48.8266 24.728 48.545 24.4467C48.2634 24.1654 47.8814 24.0073 47.4832 24.0073H16.4492C16.051 24.0073 15.669 24.1654 15.3874 24.4467C15.1058 24.728 14.9476 25.1095 14.9476 25.5073C14.9476 25.9051 15.1058 26.2867 15.3874 26.568C15.669 26.8493 16.051 27.0073 16.4492 27.0073Z" fill="black"/>
<path d="M16.4492 34.0063H40.4755C40.8738 34.0063 41.2557 33.8483 41.5373 33.567C41.8189 33.2857 41.9771 32.9042 41.9771 32.5063C41.9771 32.1085 41.8189 31.727 41.5373 31.4457C41.2557 31.1644 40.8738 31.0063 40.4755 31.0063H16.4492C16.051 31.0063 15.669 31.1644 15.3874 31.4457C15.1058 31.727 14.9476 32.1085 14.9476 32.5063C14.9476 32.9042 15.1058 33.2857 15.3874 33.567C15.669 33.8483 16.051 34.0063 16.4492 34.0063Z" fill="black"/>
<path d="M40.4755 13.0098H47.4831C47.8814 13.0098 48.2633 12.8517 48.5449 12.5704C48.8266 12.2891 48.9848 11.9076 48.9848 11.5098C48.9848 11.1119 48.8266 10.7304 48.5449 10.4491C48.2633 10.1678 47.8814 10.0098 47.4831 10.0098H40.4755C40.0772 10.0098 39.6952 10.1678 39.4136 10.4491C39.132 10.7304 38.9738 11.1119 38.9738 11.5098C38.9738 11.9076 39.132 12.2891 39.4136 12.5704C39.6952 12.8517 40.0772 13.0098 40.4755 13.0098Z" fill="black"/>
<path d="M16.4492 41.0049H31.4656C31.8639 41.0049 32.2459 40.8468 32.5275 40.5655C32.8091 40.2842 32.9673 39.9027 32.9673 39.5049C32.9673 39.1071 32.8091 38.7255 32.5275 38.4442C32.2459 38.1629 31.8639 38.0049 31.4656 38.0049H16.4492C16.051 38.0049 15.669 38.1629 15.3874 38.4442C15.1058 38.7255 14.9476 39.1071 14.9476 39.5049C14.9476 39.9027 15.1058 40.2842 15.3874 40.5655C15.669 40.8468 16.051 41.0049 16.4492 41.0049Z" fill="black"/>
</svg>

<svg width="64" height="64" viewBox="0 0 64 64" fill="none" xmlns="http://www.w3.org/2000/svg"><path d="m63.56 26.447-4.004-4a1.502 1.502 0 0 0-2.122 0l-1.441 1.45V3.541A3.535 3.535 0 0 0 53.795.277a3.548 3.548 0 0 0-1.357-.266H23.457a1.122 1.122 0 0 0-.32 0 1.462 1.462 0 0 0-.931.63L8.31 18.528v.06a1.54 1.54 0 0 0-.31.88v40.993c0 .93.366 1.822 1.02 2.485A3.546 3.546 0 0 0 11.494 64h40.945a3.55 3.55 0 0 0 3.28-2.176c.18-.429.272-.889.273-1.353V36.295l7.579-7.739a1.499 1.499 0 0 0-.01-2.11Zm-5.005 3-1.942-1.94 1.882-1.88 1.892 1.89-1.832 1.93Zm-2.563 2.559-3.003 3.07-13.575 13.857-.47.15-1.912-1.74.1-.3 15.857-15.897 1.512-1.51 1.492 1.49.43.43-.43.45ZM21.956 5.88v8.499l-8.509 2.43 8.51-10.929ZM52.99 60.47a.54.54 0 0 1-.55.53H11.494a.542.542 0 0 1-.55-.53V20.639l12.923-3.69a1.492 1.492 0 0 0 1.092-1.44V3.012h27.48a.541.541 0 0 1 .55.53v23.366L34.76 45.173a1.44 1.44 0 0 0-.36.59l-1.882 5.58a.472.472 0 0 0-.09.06 6.211 6.211 0 0 1-4.005 1.569c-.83 0-1.712-1-2.633-2-1.27-1.41-2.703-3-4.875-3-3.213 0-5.506 3.29-5.756 3.67a1.49 1.49 0 0 0 .42 2.07 1.513 1.513 0 0 0 2.083-.4c.45-.58 1.922-2.31 3.293-2.31.831 0 1.712 1 2.633 2 1.271 1.41 2.703 3 4.875 3a9.216 9.216 0 0 0 5.897-2.28l6.327-2c.233-.071.443-.202.61-.38L52.99 39.354v21.117Z" fill="currentColor"/><path d="M16.45 27.007h31.033a1.502 1.502 0 0 0 1.502-1.5 1.5 1.5 0 0 0-1.502-1.5H16.45a1.503 1.503 0 0 0-1.501 1.5 1.5 1.5 0 0 0 1.501 1.5Zm0 6.999h24.025a1.502 1.502 0 0 0 1.502-1.5 1.5 1.5 0 0 0-1.502-1.5H16.45a1.503 1.503 0 0 0-1.501 1.5 1.5 1.5 0 0 0 1.501 1.5ZM40.475 13.01h7.008a1.502 1.502 0 0 0 1.502-1.5 1.499 1.499 0 0 0-1.502-1.5h-7.008a1.503 1.503 0 0 0-1.501 1.5 1.5 1.5 0 0 0 1.502 1.5ZM16.45 41.005h15.016a1.503 1.503 0 0 0 1.501-1.5 1.5 1.5 0 0 0-1.501-1.5H16.449a1.502 1.502 0 0 0-1.501 1.5 1.5 1.5 0 0 0 1.501 1.5Z" fill="currentColor"/></svg>
